app/client/src/assets/icons/blueprintjs/20px/regression-chart.svg

<svg xmlns="http://www.w3.org/2000/svg" xml:space="preserve" viewBox="0 0 20 20"><path fill-rule="evenodd" d="M19 16H3.1L19.31 3.39l-.61-.79L2 15.59V3c0-.55-.45-1-1-1s-1 .45-1 1v14c0 .55.45 1 1 1h18c.55 0 1-.45 1-1s-.45-1-1-1zm-9-9c1.1 0 2-.9 2-2s-.9-2-2-2-2 .9-2 2 .9 2 2 2zm-5 4c1.1 0 2-.9 2-2s-.9-2-2-2-2 .9-2 2 .9 2 2 2zm10-2c0 1.1.9 2 2 2s2-.9 2-2-.9-2-2-2-2 .9-2 2zm-5 4c0 1.1.9 2 2 2s2-.9 2-2-.9-2-2-2-2 .9-2 2z" clip-rule="evenodd"/></svg>

<?xml version="1.0" encoding="utf-8"?>
<!-- Generator: Adobe Illustrator 18.0.0, SVG Export Plug-In . SVG Version: 6.00 Build 0)  -->
<svg version="1.1" id="Layer_1" xmlns="http://www.w3.org/2000/svg" xmlns:xlink="http://www.w3.org/1999/xlink" x="0px" y="0px"
	 viewBox="0 0 20 20" enable-background="new 0 0 20 20" xml:space="preserve">
<g id="regression_chart_2_">
	<g>
		<path fill-rule="evenodd" clip-rule="evenodd" d="M19,16H3.1L19.31,3.39l-0.61-0.79L2,15.59V3c0-0.55-0.45-1-1-1S0,2.45,0,3v14
			c0,0.55,0.45,1,1,1h18c0.55,0,1-0.45,1-1C20,16.45,19.55,16,19,16z M10,7c1.1,0,2-0.9,2-2c0-1.1-0.9-2-2-2S8,3.9,8,5
			C8,6.1,8.9,7,10,7z M5,11c1.1,0,2-0.9,2-2c0-1.1-0.9-2-2-2S3,7.9,3,9C3,10.1,3.9,11,5,11z M15,9c0,1.1,0.9,2,2,2s2-0.9,2-2
			c0-1.1-0.9-2-2-2S15,7.9,15,9z M10,13c0,1.1,0.9,2,2,2s2-0.9,2-2s-0.9-2-2-2S10,11.9,10,13z"/>
	</g>
</g>
</svg>
